src/public/assets/copy.svg

<svg width="32" height="33" viewBox="0 0 32 33" fill="none" xmlns="http://www.w3.org/2000/svg">
<path d="M27 4.5H11C10.7348 4.5 10.4804 4.60536 10.2929 4.79289C10.1054 4.98043 10 5.23478 10 5.5V10.5H5C4.73478 10.5 4.48043 10.6054 4.29289 10.7929C4.10536 10.9804 4 11.2348 4 11.5V27.5C4 27.7652 4.10536 28.0196 4.29289 28.2071C4.48043 28.3946 4.73478 28.5 5 28.5H21C21.2652 28.5 21.5196 28.3946 21.7071 28.2071C21.8946 28.0196 22 27.7652 22 27.5V22.5H27C27.2652 22.5 27.5196 22.3946 27.7071 22.2071C27.8946 22.0196 28 21.7652 28 21.5V5.5C28 5.23478 27.8946 4.98043 27.7071 4.79289C27.5196 4.60536 27.2652 4.5 27 4.5ZM20 26.5H6V12.5H20V26.5ZM26 20.5H22V11.5C22 11.2348 21.8946 10.9804 21.7071 10.7929C21.5196 10.6054 21.2652 10.5 21 10.5H12V6.5H26V20.5Z" fill="#E4E4E6" fill-opacity="0.6"/>
</svg>

<svg xmlns="http://www.w3.org/2000/svg" width="32" height="33" fill="none"><path fill="#E4E4E6" fill-opacity=".6" d="M27 4.5H11a1 1 0 0 0-1 1v5H5a1 1 0 0 0-1 1v16a1 1 0 0 0 1 1h16a1 1 0 0 0 1-1v-5h5a1 1 0 0 0 1-1v-16a1 1 0 0 0-1-1m-7 22H6v-14h14zm6-6h-4v-9a1 1 0 0 0-1-1h-9v-4h14z"/></svg>
